X:745
T:New Mill of Logierait, The
R:Strathspey
B:The Athole Collection
M:C|
L:1/8
K:A Minor
a|A/A/A e>d B2 A>B|G>AB>c d<g d>B|e<A e>d e>^fg>e|
d>B^G>B (A2A:|
g|a<A a>b a2 e>^f|g>ed>c B<G G<g|a<A a>b a<e e>^f|
g>ed>B A2 A>g|a<A a>b a<A A>f|g<Gg<b g<G G>g|
a>e^f>d e>fg>e|d>B^G>B A2A||

